X: 380
T: A Tailor I Am
R: jig
M: 6/8
K: Gmajor
|:A|~B3 dBA|GBA G2d|dcB c2d|ecA (3cde c|
BAB dBA|GBA G2d|dcB Adc|BGG G2:|
e|dBd g2a|bga fge|dcB c2d|ecA A2a|
afd g2a|bga fge|dcB Adc|BGG G2e|
dBd g2a|bga fge|dcB c2d|ecA A2^g|
afd g2a|bga g2e|dcB Adc|BGG G2||

